src/assets/icons/_invert.svg

<svg xmlns="http://www.w3.org/2000/svg" width="128" height="128" viewBox="0 0 128 128">
  <path d="M64,6.5 C73.2479584,6.5 81.783986,12.8431281 87.993977,23.7704625 C94.0530202,34.4321834 97.5,48.7502337 97.5,64 C97.5,95.3301091 83.0206046,120.982352 64.5606016,121.492264 L64,121.5 L64,118.5 C80.6196098,118.5 94.5,94.2093171 94.5,64 C94.5,49.2491127 91.1758282,35.4411817 85.3857384,25.2527214 C79.6607017,15.1787308 72.0187619,9.5 64,9.5 C56.0229114,9.5 48.4183151,15.1192172 42.7013438,25.1000906 C39.3837088,30.8921249 36.8369272,37.9369672 35.2741152,45.7150263 L43.0718643,46.3956306 L31.9565457,64.4981081 L24.1437549,44.7443667 L32.2673975,45.4532903 C33.885224,37.2398226 36.5667335,29.7742506 40.0981454,23.6089976 C46.3015318,12.7789251 54.7989236,6.5 64,6.5 Z"/>
</svg>

<svg xmlns="http://www.w3.org/2000/svg" viewBox="0 0 128 128">
    <path d="M64 6.5c9.248 0 17.784 6.343 23.994 17.27C94.053 34.432 97.5 48.75 97.5 64c0 31.33-14.48 56.982-32.94 57.492l-.56.008v-3c16.62 0 30.5-24.29 30.5-54.5 0-14.75-3.324-28.559-9.114-38.747C79.66 15.179 72.019 9.5 64 9.5c-7.977 0-15.582 5.62-21.299 15.6-3.317 5.792-5.864 12.837-7.427 20.615l7.798.68-11.115 18.103-7.813-19.754 8.123.71c1.618-8.214 4.3-15.68 7.831-21.845C46.302 12.779 54.798 6.5 64 6.5z"/>
</svg>
